X:0
T:The Argyll & Sutherland Highlanders at Modder River
N:commemorates a catastrophic defeat in the Boer War
G:March
C:Wm. Robb
S:Peter Henderson's tutor
M:2/4
L:1/16
Q:1/4=76
K:BMin
f2|BBBc B2ce|f2ae f2ec|AAAB AAce|f2aA c2BA|
   BBBc B2ce|f2ae f2ec|BABc Bfec|c2B2 BB :|
ce|f3a  f2e2|fefa f2ec|AAAB AAce|f2aA c2BA|
[1 f3a  f2e2|fefa f2ec|BABc Bfec|c2B2 BB :|
[2 BBBc B2ce|f2ae f2ec|BABc Bfec|c2B2 BB ||
f2|BBBc fBce|fBBB f2ec|AAAB AAce|faga f2ec|
   BBBc fBce|fBBB f2ec|BABc Bfec|c2B2 BB :|
ce|fefa fece|faga f2ec|AAAB eAce|faAa f2ec|
[1 fefa fece|faga f2ec|BABc Bfec|c2B2 BB :|
[2 BBBc fBce|fBBB f2ec|BABc Bfec|c2B2 BB |]

The same pitch set is used in the second half of this little-known pipe
march, which eliminates the fourth (the d) from a mixolydian scale:

